archdroid-icon-theme/Archdroid-Blue/apps/scalable/addressbook.svg

<svg fill="#2196F3" height="48" viewBox="0 0 48 48" width="48" xmlns="http://www.w3.org/2000/svg"><path d="m40 0h-32v4h32zm-32 48h32v-4h-32zm32-40h-32c-2.21 0-4 1.79-4 4v24c0 2.21 1.79 4 4 4h32c2.21 0 4-1.79 4-4v-24c0-2.21-1.79-4-4-4zm-16 5.5c2.48 0 4.5 2.02 4.5 4.5 0 2.49-2.02 4.5-4.5 4.5s-4.5-2.01-4.5-4.5c0-2.48 2.02-4.5 4.5-4.5zm10 20.5h-20v-3c0-3.33 6.67-5 10-5s10 1.67 10 5z" fill="#2196F3"/></svg>

<svg fill="#2196F3" height="48" version="1.1" viewBox="0 0 48 48" width="48" xmlns="http://www.w3.org/2000/svg"><path d="M40 0L8 0 8 4 40 4 40 0ZM8 48L40 48 40 44 8 44 8 48ZM40 8L8 8C5.79 8 4 9.79 4 12l0 24c0 2.21 1.79 4 4 4l32 0c2.21 0 4-1.79 4-4L44 12C44 9.79 42.21 8 40 8Zm-16 5.5c2.48 0 4.5 2.02 4.5 4.5 0 2.49-2.02 4.5-4.5 4.5-2.48 0-4.5-2.01-4.5-4.5 0-2.48 2.02-4.5 4.5-4.5zM34 34L14 34 14 31c0-3.33 6.67-5 10-5 3.33 0 10 1.67 10 5l0 3z"/></svg>
